public/svg/icon/xas.svg

<svg xmlns="http://www.w3.org/2000/svg" xmlns:xlink="http://www.w3.org/1999/xlink" width="32" height="32" viewBox="0 0 32 32"><defs><linearGradient id="xas-c" x1="50%" x2="50%" y1="0%" y2="100%"><stop offset="0%" stop-color="#FFF" stop-opacity=".5"/><stop offset="100%" stop-opacity=".5"/></linearGradient><circle id="xas-b" cx="16" cy="15" r="15"/><filter id="xas-a" width="111.7%" height="111.7%" x="-5.8%" y="-4.2%" filterUnits="objectBoundingBox"><feOffset dy=".5" in="SourceAlpha" result="shadowOffsetOuter1"/><feGaussianBlur in="shadowOffsetOuter1" result="shadowBlurOuter1" stdDeviation=".5"/><feComposite in="shadowBlurOuter1" in2="SourceAlpha" operator="out" result="shadowBlurOuter1"/><feColorMatrix in="shadowBlurOuter1" values="0 0 0 0 0 0 0 0 0 0 0 0 0 0 0 0 0 0 0.199473505 0"/></filter><path id="xas-e" d="M25.9916006,13.4711311 L16.5232844,24.4806684 L16.0977134,25 L6.00671954,13.5818766 L6.03871737,13.5691517 L6,13.562982 L9.92181332,7.00624679 L9.92397317,7.00848329 L9.92181332,7 L22.17586,7 L22.1736202,7.00724936 L26,13.4690488 L25.9916006,13.4711311 Z M12.8555338,13.9296144 L10.6851214,17.6036504 L16.0375574,23.7160154 L21.4005528,17.5540617 L19.279097,13.9189717 L12.8555338,13.9296144 Z M10.0776427,16.9100257 L11.8372031,13.9313111 L7.47557966,13.9384833 L10.0776427,16.9100257 Z M19.8008215,13.0640103 L24.7554446,13.0556041 L21.6457361,7.84832905 L16.7630281,7.8588946 L19.8008215,13.0640103 Z M24.5720171,13.9100257 L20.2988677,13.9170437 L22.0115512,16.8517224 L24.5720171,13.9100257 Z M18.7809709,13.0656298 L16.0897139,8.45442159 L13.3605395,13.0745758 L18.7809709,13.0656298 Z M10.382342,7.87246787 L7.28255279,13.0848329 L12.3422087,13.0762725 L15.4225593,7.86174807 L10.382342,7.87246787 Z"/><filter id="xas-d" width="117.5%" height="119.4%" x="-8.8%" y="-6.9%" filterUnits="objectBoundingBox"><feOffset dy=".5" in="SourceAlpha" result="shadowOffsetOuter1"/><feGaussianBlur in="shadowOffsetOuter1" result="shadowBlurOuter1" stdDeviation=".5"/><feColorMatrix in="shadowBlurOuter1" values="0 0 0 0 0 0 0 0 0 0 0 0 0 0 0 0 0 0 0.204257246 0"/></filter></defs><g fill="none" fill-rule="evenodd"><use fill="#000" filter="url(#xas-a)" xlink:href="#xas-b"/><use fill="#FAA00D" xlink:href="#xas-b"/><use fill="url(#xas-c)" style="mix-blend-mode:soft-light" xlink:href="#xas-b"/><circle cx="16" cy="15" r="14.5" stroke="#000" stroke-opacity=".097"/><g fill-rule="nonzero"><use fill="#000" filter="url(#xas-d)" xlink:href="#xas-e"/><use fill="#FFF" fill-rule="evenodd" xlink:href="#xas-e"/></g></g></svg>

<svg xmlns="http://www.w3.org/2000/svg" xmlns:xlink="http://www.w3.org/1999/xlink" width="32" height="32" viewBox="0 0 32 32"><defs><filter id="a" width="111.7%" height="111.7%" x="-5.8%" y="-4.2%" filterUnits="objectBoundingBox"><feOffset dy=".5" in="SourceAlpha" result="shadowOffsetOuter1"/><feGaussianBlur in="shadowOffsetOuter1" result="shadowBlurOuter1" stdDeviation=".5"/><feComposite in="shadowBlurOuter1" in2="SourceAlpha" operator="out" result="shadowBlurOuter1"/><feColorMatrix in="shadowBlurOuter1" values="0 0 0 0 0 0 0 0 0 0 0 0 0 0 0 0 0 0 0.199473505 0"/></filter><filter id="d" width="117.5%" height="119.4%" x="-8.8%" y="-6.9%" filterUnits="objectBoundingBox"><feOffset dy=".5" in="SourceAlpha" result="shadowOffsetOuter1"/><feGaussianBlur in="shadowOffsetOuter1" result="shadowBlurOuter1" stdDeviation=".5"/><feColorMatrix in="shadowBlurOuter1" values="0 0 0 0 0 0 0 0 0 0 0 0 0 0 0 0 0 0 0.204257246 0"/></filter><linearGradient id="c" x1="50%" x2="50%" y1="0%" y2="100%"><stop offset="0%" stop-color="#FFF" stop-opacity=".5"/><stop offset="100%" stop-opacity=".5"/></linearGradient><circle id="b" cx="16" cy="15" r="15"/><path id="e" d="M25.992 13.471l-9.469 11.01-.425.519L6.007 13.582l.032-.013L6 13.563l3.922-6.557.002.002L9.922 7h12.254l-.002.007L26 13.47l-.008.002zm-13.136.459l-2.17 3.674 5.352 6.112 5.363-6.162-2.122-3.635-6.423.01zm-2.778 2.98l1.76-2.979-4.362.007 2.602 2.972zm9.723-3.846l4.954-.008-3.11-5.208-4.882.01 3.038 5.206zm4.771.846l-4.273.007 1.713 2.935 2.56-2.942zm-5.791-.844L16.09 8.454l-2.73 4.62 5.421-.008zm-8.399-5.194l-3.1 5.213 5.06-.009 3.08-5.214-5.04.01z"/></defs><g fill="none" fill-rule="evenodd"><use fill="#000" filter="url(#a)" xlink:href="#b"/><use fill="#FAA00D" xlink:href="#b"/><use fill="url(#c)" style="mix-blend-mode:soft-light" xlink:href="#b"/><circle cx="16" cy="15" r="14.5" stroke="#000" stroke-opacity=".097"/><g fill-rule="nonzero"><use fill="#000" filter="url(#d)" xlink:href="#e"/><use fill="#FFF" fill-rule="evenodd" xlink:href="#e"/></g></g></svg>
